X: 39718
T: Terry's Travels
R: reel
M: 4/4
K: Bdorian
|:FA|BBAB fB B2|cA A2 EAce|d2 Bd cF F2|ecBA B2 FA|
BBAB fB B2|cA A2 eAce|^defg a2 fe|cBAF B2:|
|:cB|(3cde fg a2 fe|fbbg agfe|d2 Bd cF F2|ecBA B2 cB|
(3cde fg a2 c'b|a2 fe a2 fe|(3cde fg a2 fe|cBAF B2:|

